X:1
T: Hobb's Favourite
C:
R:Reel
Q: 232
K:D
M:4/4
L:1/8
|:((3ABc)|d2 cA B2 AF|DC DF EB, B,E|DF AF DF Ad|cA Bc dA Bc|
d2 cA B2 AF|DC DF EB, B,E|DF AF DF Ad|1cA Bc d2 ((3ABc):|2cA Bc d2 Bc|
|:df Bc dB fd|cA AB cA ec|df Bc dB fd|ce Ac ((3BBB) Bc|
df Bc dB fd|ce AB cA eg|((3fgf) ec ((3ded) cA|1BA Bc d2 Bc:|2BA Bc d2||
